X:251
T:Appelbomarsch
M:4/4
L:1/8
K:G
D2 | \
G3D  G2B2 | d6 Bc | d2dB d2de | c2cB A2 AB |\
c2cd e2dc | BcBA G2FG | ABAF D2EF | G6 :|
|:Bd |\
g2g2 g2fe | f2 f2 f2 gf | e2ef g2fe | edd^c d2dB |\
c2 cB A2GA | BcBA G2FG|  ABAF D2EF | G6 :|
